public/img/wave.svg

<svg width="304" height="105" viewBox="0 0 304 105" fill="none" xmlns="http://www.w3.org/2000/svg">
<path d="M304 62.387L303.832 62.2448L304 62.0552L299.717 58.4524L269.762 31.0521C269.762 31.0521 269.233 31.5973 268.367 32.4032L267.573 33.2565C260.74 39.5377 238.845 57.7176 213.149 58.0731C212.596 58.0731 212.042 58.0731 211.489 58.0731C197.967 56.6273 184.782 49.4691 171.405 36.2193C149.197 14.1284 124.487 2.20595 97.9008 0.617872C97.1549 0.617872 96.409 0.617872 95.6872 0.617872C91.6876 0.268589 87.6698 0.165683 83.6571 0.309744C43.621 1.92153 13.8827 28.3737 3.77744 38.5658C1.61203 40.4858 0.312782 41.8605 0.0240602 42.0975L0.168421 42.2398C0.124494 42.3195 0.0675989 42.3915 0 42.4531L4.28271 46.0085L34.2376 73.4325L35.6331 72.0577L36.4271 71.2044C43.2361 64.8995 65.1549 46.7196 90.8511 46.3877C91.4045 46.3877 91.9338 46.3877 92.4872 46.3877C106.033 47.8336 119.194 54.9918 132.571 68.2416C154.803 90.2376 179.465 102.16 206.051 103.796C206.773 103.796 207.519 103.796 208.265 103.796C212.264 104.146 216.282 104.249 220.295 104.104C260.331 102.492 290.069 76.0635 300.174 65.8713C302.268 63.8803 303.591 62.5292 303.856 62.2448" fill="#412885"/>
</svg>

<svg width="304" height="105" fill="none" xmlns="http://www.w3.org/2000/svg"><path d="M304 62.387l-.168-.142.168-.19-4.283-3.603-29.955-27.4s-.529.545-1.395 1.351l-.794.854c-6.833 6.28-28.728 24.46-54.424 24.816h-1.66c-13.522-1.446-26.707-8.604-40.084-21.854C149.197 14.13 124.487 2.206 97.901.618h-2.214c-4-.35-8.017-.452-12.03-.308-40.036 1.612-69.774 28.064-79.88 38.256C1.612 40.486.313 41.86.024 42.097l.144.143a.832.832 0 01-.168.213l4.283 3.555 29.955 27.425 1.395-1.375.794-.854c6.81-6.304 28.728-24.484 54.424-24.816h1.636c13.546 1.446 26.707 8.604 40.084 21.854 22.232 21.996 46.894 33.918 73.48 35.554h2.214c3.999.35 8.017.453 12.03.308 40.036-1.612 69.774-28.04 79.879-38.233 2.094-1.99 3.417-3.342 3.682-3.626" fill="#412885"/></svg>
